X: 18
T:18.  I Think My Brains Fell Out
C:c 1999 Harry Bolick  
R:Breakdown
O:United States
A:Brooklyn, New York
M:4/4
L:1/8
Q:450
K:D
|: "D" A,2 D2 D2 F2 | =F2 ^F2 D4 | "A" E2 E2 E2 E2 |  (B,A,) (B,C) (DC) (B,A,) |
"D" D2 DD D2 F2 | =F2 ^F2 D4 | "G" B2 A(B A)F (ED) | "A" E8 :|
|:"D" d2  dd d2c2 | dB AF ED FA | [1  "G" B2 BB B2 BB| (DF) AA (BA) FA :|[2  "D" (fe) df "A" (af e2) | "D"d8 ||
